X: 26469
T: Mhairi MacLean
R: reel
M: 4/4
K: Dmajor
A,C|D2 DE FA,CE|FD D/D/D FAdf|gfed fdAF|GFED CEAF|
D2 DE FA,CE|FD D/D/D FAdf|gfed fdAF|GEAF D2:|
z2|Addf abag|fd d/d/d Adfd|e2 eg bagf|ge e/e/e Bege|
Addf abag|fd d/d/d Adfd|gfed cBAF|GEAF D2:|

